X:501
T:Funeral Marches
T:No. 1
S:Bruce & Emmett's Drummers and Fifers Guide (1862), pp. 50-51
M:C
L:1/8
K:Bm
%%MIDI program 72
%%MIDI transpose 8
%%MIDI ratio 3 1
F2|f3E d>cd>e|f2 f>f f2 g>f|e4 d>cd>e|c2 f>f f2 F2|f3e dcB^A|
B2b2 f4|e>fg>e f2 ^A2|B>cd>c B2::B2|c4-c.d(^de)|c2F>F F2c2|d3c .d(f^ef)|
d2B>B B2F2|f3e d>cB>^A|B2b2 f4|e>Fg>e f2^A2|B>cd>c B2:||
